X: 89
T: JOYCE R'S WALTZ
T: Joyce Rossbach's Waltz
C: Bob McQuillen 23 June 05
%:2005
R: waltz
S: handwritten page from Jan Jones 2020-8-14 for RJ session
Z: 2020 John Chambers <jc:trillian.mit.edu>
M: 3/4
L: 1/8
K: G
GA \
| "G"B2 BA Bc | "G"BA G2 BA | "C"G3  F E2 | "G"D6    | "G"d2 dB de |"Em"d2 B2 cd | "Am"e2 ed ce | "D7"d4 dc |
| "G"B2 BA Bc | "G"dB G2 GF | "C"E2 EF GA | "G"G2 D4 | "C"E2 EG ce | "G"dB G2 DD | "D7"E2 G2 F2 | "G"G4 :|
|: Bd \
| "C"e2 ef g2 | "G"d2 B2 d2 |"D7"c3 d c2 | "G"B4    cd | "C"e3 f g2 |"Em"d2 B2 d2 | "Am"e3       f g2 |"D7"a4 gf |
| "C"e3  f g2 |"Bm"f2 d2 B2 | "C"c3 d e2 | "G"d2 B2 G2 | "C"E3 F G2 | "G"D2 c2 B2 | "D7"(3(ABA) G2 F2 | "G"G4 :|
%%begintext align
%% For Joyce Rossbach - with thanks for so many Kindnesses
%% over so many happy years -
%% Love, Bob McQuillen
%%endtext
%%begintext align
%% Originally from South Carolina, Joyce is a Traditional Dance caller, Sword Dancer, and plays Hammered
%% Dulcimer. She has called for many dances, especially around New York state when she lived there, before
%% becoming Director of the Augusta Heritage Center at Davis & Elkins College, Elkins WV from 2008-2013.
%% https://www.johnrossbach.com/JoyceRossbach.html
%%endtext

% %newpage
% %center === TUNES FOR BOB ===

%%sep 1 1 500

%%sep 1 1 500

